assets/img/microillustration/alert.svg

<?xml version="1.0" encoding="UTF-8"?>
<svg width="106px" height="106px" viewBox="0 0 106 106" version="1.1" xmlns="http://www.w3.org/2000/svg" xmlns:xlink="http://www.w3.org/1999/xlink">
    <title>4. Elements_Microillustrations/Alert</title>
    <g id="4.-Elements_Microillustrations/Alert" stroke="none" stroke-width="1" fill="none" fill-rule="evenodd">
        <g id="Content" transform="translate(11.371163, 17.035794)">
            <path d="M46.8302746,3.01018498 L82.4591114,64.9733794 C84.1108994,67.8460542 83.1211751,71.513856 80.2485004,73.165644 C79.3385695,73.6888542 78.3073036,73.9642062 77.2576736,73.9642062 L6,73.9642062 C2.6862915,73.9642062 0,71.2779147 0,67.9642062 C0,66.9145761 0.27535192,65.8833103 0.798562182,64.9733794 L36.427399,3.01018498 C38.079187,0.137510196 41.7469888,-0.852214094 44.6196635,0.799573907 C45.538932,1.32815325 46.3016953,2.09091656 46.8302746,3.01018498 Z" id="Triangle" fill="#EE4900"></path>
            <path d="M43.3640993,5.99224944 L77.7350669,65.9697897 C78.2842679,66.9281488 77.9525798,68.1502676 76.9942208,68.6994687 C76.6915136,68.8729393 76.3486936,68.9642062 75.9998043,68.9642062 L7.25786926,68.9642062 C6.15329976,68.9642062 5.25786926,68.0687757 5.25786926,66.9642062 C5.25786926,66.6153169 5.34913617,66.2724969 5.52260676,65.9697897 L39.8935743,5.99224944 C40.4427753,5.03389042 41.6648942,4.70220233 42.6232532,5.25140336 C42.9316466,5.4281325 43.1873702,5.68385603 43.3640993,5.99224944 Z" id="Triangle" fill="#FFFFFF"></path>
            <path d="M42.4953078,12.4680742 L71.8777668,63.4649788 C72.1534825,63.9435176 71.9890619,64.5549615 71.5105231,64.8306772 C71.3586878,64.9181589 71.18653,64.9642062 71.0112958,64.9642062 L12.2463778,64.9642062 C11.6940931,64.9642062 11.2463778,64.5164909 11.2463778,63.9642062 C11.2463778,63.788972 11.2924251,63.6168142 11.3799068,63.4649788 L40.7623658,12.4680742 C41.0380814,11.9895355 41.6495254,11.8251149 42.1280642,12.1008305 C42.2806858,12.1887652 42.4073731,12.3154526 42.4953078,12.4680742 Z" id="Triangle" fill="#FFEACF"></path>
            <g id="Group" transform="translate(39.000000, 27.000000)" fill="#000000">
                <rect id="Rectangle" x="0.727206604" y="0" width="4.36353057" height="21.8179438"></rect>
                <path d="M2.90911736,26.1817653 C1.30501509,26.1817653 0,27.4867804 0,29.0908826 C0,30.6949849 1.30501509,32 2.90911736,32 C4.51307415,32 5.81823472,30.6949849 5.81823472,29.0908826 C5.81823472,27.4867804 4.51321962,26.1817653 2.90911736,26.1817653 Z" id="Path"></path>
            </g>
        </g>
    </g>
</svg>

<?xml version="1.0" encoding="UTF-8"?>
<svg version="1.1" viewBox="0 0 106 106" xmlns="http://www.w3.org/2000/svg">
<title>4. Elements_Microillustrations/Alert</title>
<g fill="none" fill-rule="evenodd">
<g transform="translate(11.371 17.036)">
<path d="m46.83 3.0102 35.629 61.963c1.6518 2.8727 0.66206 6.5405-2.2106 8.1923-0.90993 0.52321-1.9412 0.79856-2.9908 0.79856h-71.258c-3.3137 0-6-2.6863-6-6 0-1.0496 0.27535-2.0809 0.79856-2.9908l35.629-61.963c1.6518-2.8727 5.3196-3.8624 8.1923-2.2106 0.91927 0.52858 1.682 1.2913 2.2106 2.2106z" fill="#EE4900"/>
<path d="m43.364 5.9922 34.371 59.978c0.5492 0.95836 0.21751 2.1805-0.74085 2.7297-0.30271 0.17347-0.64553 0.26474-0.99442 0.26474h-68.742c-1.1046 0-2-0.89543-2-2 0-0.34889 0.091267-0.69171 0.26474-0.99442l34.371-59.978c0.5492-0.95836 1.7713-1.29 2.7297-0.74085 0.30839 0.17673 0.56412 0.43245 0.74085 0.74085z" fill="#fff"/>
<path d="m42.495 12.468 29.382 50.997c0.27572 0.47854 0.1113 1.09-0.36724 1.3657-0.15184 0.087482-0.32399 0.13353-0.49923 0.13353h-58.765c-0.55228 0-1-0.44772-1-1 0-0.17523 0.046047-0.34739 0.13353-0.49923l29.382-50.997c0.27572-0.47854 0.88716-0.64296 1.3657-0.36724 0.15262 0.087935 0.27931 0.21462 0.36724 0.36724z" fill="#FFEACF"/>
<g transform="translate(39 27)" fill="#000">
<rect x=".72721" width="4.3635" height="21.818"/>
<path d="m2.9091 26.182c-1.6041 0-2.9091 1.305-2.9091 2.9091s1.305 2.9091 2.9091 2.9091c1.604 0 2.9091-1.305 2.9091-2.9091s-1.305-2.9091-2.9091-2.9091z"/>
</g>
</g>
</g>
</svg>
